X: 37895
T: South Of The Grampians
R: strathspey
M: 4/4
K: Amajor
A,>B,C>D E<C E2|A>EF>E A>EA<c|A,>B,C>D E<CE>c|(3dcB (3cBA (3GFE (3DCB,|
A,>B,C>D E<C E2|A>EF>E A>EA<c|d>cd>f e<cA>c|(3dcB (3cBA G<BB>c||
A>ec>e (3Ace ~c2|A>ec>e (3Ace (3fga|A>ec>e (3Ace a>g|(3fed (3cBA G<BB>c|
A>ec>e (3Ace ~c2|A>ec>e (3Ace (3fga|(3agf (3edc (3dfd (3cec|(3fed (3cBA (3GFE (3DCB,||

